Newaita-dark/actions/32/gnumeric-format-halign-distributed.svg

<svg height="32" viewBox="0 0 32 32" width="32" xmlns="http://www.w3.org/2000/svg"><g fill="#e0e0e0"><path d="m2.976562 4.21875h25.800782c.179687 0 .328125-.148438.328125-.332031v-.644531c0-.179688-.148438-.328126-.328125-.328126h-25.800782c-.183593 0-.332031.148438-.332031.328126v.644531c0 .183593.148438.332031.332031.332031zm0 0"/><path d="m8.929688 8.1875h13.894531c.179687 0 .328125-.148438.328125-.328125v-.648437c0-.179688-.148438-.328126-.328125-.328126h-13.894531c-.183594 0-.328126.148438-.328126.328126v.648437c0 .179687.144532.328125.328126.328125zm0 0"/><path d="m2.976562 14.785156h25.800782c.179687 0 .328125-.148437.328125-.328125v-.644531c0-.183594-.148438-.332031-.328125-.332031h-25.800782c-.183593 0-.332031.148437-.332031.332031v.644531c0 .179688.148438.328125.332031.328125zm0 0"/><path d="m2.976562 25.386719h25.800782c.179687 0 .328125-.148438.328125-.328125v-.644532c0-.183593-.148438-.332031-.328125-.332031h-25.800782c-.183593 0-.332031.148438-.332031.332031v.644532c0 .179687.148438.328125.332031.328125zm0 0"/><path d="m8.929688 18.773438h13.894531c.179687 0 .328125-.148438.328125-.332032v-.644531c0-.183594-.148438-.332031-.328125-.332031h-13.894531c-.183594 0-.328126.148437-.328126.332031v.644531c0 .183594.144532.332032.328126.332032zm0 0"/><path d="m8.929688 29.355469h13.894531c.179687 0 .328125-.148438.328125-.328125v-.644532c0-.183593-.148438-.332031-.328125-.332031h-13.894531c-.183594 0-.328126.148438-.328126.332031v.644532c0 .179687.144532.328125.328126.328125zm0 0"/></g></svg>

<?xml version="1.0" encoding="UTF-8"?>
<svg xmlns="http://www.w3.org/2000/svg" xmlns:xlink="http://www.w3.org/1999/xlink" width="32px" height="32px" viewBox="0 0 32 32" version="1.1">
<g id="surface1">
<path style=" stroke:none;fill-rule:nonzero;fill:rgb(87.843138%,87.843138%,87.843138%);fill-opacity:1;" d="M 2.976562 4.21875 L 28.777344 4.21875 C 28.957031 4.21875 29.105469 4.070312 29.105469 3.886719 L 29.105469 3.242188 C 29.105469 3.0625 28.957031 2.914062 28.777344 2.914062 L 2.976562 2.914062 C 2.792969 2.914062 2.644531 3.0625 2.644531 3.242188 L 2.644531 3.886719 C 2.644531 4.070312 2.792969 4.21875 2.976562 4.21875 Z M 2.976562 4.21875 "/>
<path style=" stroke:none;fill-rule:nonzero;fill:rgb(87.843138%,87.843138%,87.843138%);fill-opacity:1;" d="M 8.929688 8.1875 L 22.824219 8.1875 C 23.003906 8.1875 23.152344 8.039062 23.152344 7.859375 L 23.152344 7.210938 C 23.152344 7.03125 23.003906 6.882812 22.824219 6.882812 L 8.929688 6.882812 C 8.746094 6.882812 8.601562 7.03125 8.601562 7.210938 L 8.601562 7.859375 C 8.601562 8.039062 8.746094 8.1875 8.929688 8.1875 Z M 8.929688 8.1875 "/>
<path style=" stroke:none;fill-rule:nonzero;fill:rgb(87.843138%,87.843138%,87.843138%);fill-opacity:1;" d="M 2.976562 14.785156 L 28.777344 14.785156 C 28.957031 14.785156 29.105469 14.636719 29.105469 14.457031 L 29.105469 13.8125 C 29.105469 13.628906 28.957031 13.480469 28.777344 13.480469 L 2.976562 13.480469 C 2.792969 13.480469 2.644531 13.628906 2.644531 13.8125 L 2.644531 14.457031 C 2.644531 14.636719 2.792969 14.785156 2.976562 14.785156 Z M 2.976562 14.785156 "/>
<path style=" stroke:none;fill-rule:nonzero;fill:rgb(87.843138%,87.843138%,87.843138%);fill-opacity:1;" d="M 2.976562 25.386719 L 28.777344 25.386719 C 28.957031 25.386719 29.105469 25.238281 29.105469 25.058594 L 29.105469 24.414062 C 29.105469 24.230469 28.957031 24.082031 28.777344 24.082031 L 2.976562 24.082031 C 2.792969 24.082031 2.644531 24.230469 2.644531 24.414062 L 2.644531 25.058594 C 2.644531 25.238281 2.792969 25.386719 2.976562 25.386719 Z M 2.976562 25.386719 "/>
<path style=" stroke:none;fill-rule:nonzero;fill:rgb(87.843138%,87.843138%,87.843138%);fill-opacity:1;" d="M 8.929688 18.773438 L 22.824219 18.773438 C 23.003906 18.773438 23.152344 18.625 23.152344 18.441406 L 23.152344 17.796875 C 23.152344 17.613281 23.003906 17.464844 22.824219 17.464844 L 8.929688 17.464844 C 8.746094 17.464844 8.601562 17.613281 8.601562 17.796875 L 8.601562 18.441406 C 8.601562 18.625 8.746094 18.773438 8.929688 18.773438 Z M 8.929688 18.773438 "/>
<path style=" stroke:none;fill-rule:nonzero;fill:rgb(87.843138%,87.843138%,87.843138%);fill-opacity:1;" d="M 8.929688 29.355469 L 22.824219 29.355469 C 23.003906 29.355469 23.152344 29.207031 23.152344 29.027344 L 23.152344 28.382812 C 23.152344 28.199219 23.003906 28.050781 22.824219 28.050781 L 8.929688 28.050781 C 8.746094 28.050781 8.601562 28.199219 8.601562 28.382812 L 8.601562 29.027344 C 8.601562 29.207031 8.746094 29.355469 8.929688 29.355469 Z M 8.929688 29.355469 "/>
</g>
</svg>
